app/assets/images/achievements/icons8-dog-pee.svg

<svg xmlns="http://www.w3.org/2000/svg"  viewBox="0 0 50 50" width="50px" height="50px"><path d="M 34.876953 3.0078125 C 34.661953 3.0340625 34.454062 3.1290625 34.289062 3.2890625 C 32.229062 5.3590625 31.99 8.6704688 33.75 10.980469 L 33.759766 11.009766 L 29.490234 17 C 19.760234 16.94 16.490313 16.95 15.320312 17 C 14.110313 16.12 13.110469 15.210625 12.480469 14.390625 C 11.380469 12.990625 10.749219 11.779687 10.699219 11.679688 C 10.689219 11.669688 10.689687 11.660625 10.679688 11.640625 C 9.9296875 10.180625 8.1301562 9.5803125 6.6601562 10.320312 C 5.1801562 11.060313 4.5800781 12.869375 5.3300781 14.359375 C 5.3400781 14.389375 6.990625 17.350313 9.640625 20.070312 L 0.23046875 31.359375 C 0.06046875 31.569375 -0.020234375 31.839375 0.009765625 32.109375 C 0.039765625 32.379375 0.170625 32.629062 0.390625 32.789062 L 4.8007812 36.189453 C 5.3307813 36.649453 6.0302344 36.910156 6.7402344 36.910156 C 7.6402344 36.910156 8.4690625 36.519844 9.0390625 35.839844 C 10.079062 34.589844 9.9402344 32.729922 8.7402344 31.669922 L 10.150391 30.259766 L 12.150391 28.259766 L 12.160156 28.259766 C 12.200156 28.209766 12.239297 28.180156 12.279297 28.160156 C 12.319297 28.130156 12.370156 28.100078 12.410156 28.080078 C 12.490156 28.030078 12.579922 28.000234 12.669922 27.990234 C 12.729922 27.980234 12.799375 27.970703 12.859375 27.970703 C 12.919375 27.970703 12.990781 27.980234 13.050781 27.990234 C 13.120781 28.000234 13.180234 28.019063 13.240234 28.039062 C 17.200234 29.279062 18.669687 25.510234 18.929688 24.740234 C 19.109687 24.210234 19.669219 23.929609 20.199219 24.099609 C 20.719219 24.279609 21.010078 24.849141 20.830078 25.369141 C 19.950078 28.019141 17.8 30.289063 14.75 30.289062 C 14.24 30.289062 13.710156 30.229609 13.160156 30.099609 L 12.960938 30.300781 C 14.540938 31.670781 17.32 33 21 33 L 31 33 L 31 45 C 31 45.55 31.45 46 32 46 L 38 46 C 38.81 46 39.569375 45.679141 40.109375 45.119141 C 40.739375 44.509141 41.060234 43.640469 40.990234 42.730469 C 40.860234 41.320469 39.69 40.189531 38.25 40.019531 L 40.970703 28.220703 C 40.990703 28.150703 41 28.08 41 28 L 41 22.240234 L 43.619141 17 L 47 17 C 47.43 17 47.809219 16.720312 47.949219 16.320312 L 49.949219 10.320312 C 50.049219 10.010312 50.000547 9.6799219 49.810547 9.4199219 C 49.620547 9.1499219 49.32 9 49 9 L 45.410156 9 L 42.710938 6.2890625 C 42.520938 6.1090625 42.27 6 42 6 L 40.279297 6 L 35.509766 3.140625 C 35.314766 3.025625 35.091953 2.9815625 34.876953 3.0078125 z M 11.789062 31.929688 L 11 44.939453 C 10.98 45.209453 11.079531 45.479453 11.269531 45.689453 C 11.459531 45.889453 11.72 46 12 46 L 18.019531 46 C 19.659531 45.97 21 44.640469 21 42.980469 C 20.97 41.380469 19.740703 40.09 18.220703 40 L 18.509766 38.550781 C 18.429766 38.500781 18.349531 38.440859 18.269531 38.380859 C 17.109531 37.510859 16.769453 35.889375 17.439453 34.609375 C 15.039453 34.069375 13.109063 33.029688 11.789062 31.929688 z M 19.962891 35.017578 C 19.709141 35.051328 19.470781 35.180891 19.300781 35.400391 C 18.970781 35.840391 19.06 36.470781 19.5 36.800781 C 19.68 36.939781 19.889609 37.009766 20.099609 37.009766 C 20.399609 37.009766 20.700391 36.870375 20.900391 36.609375 C 21.230391 36.170375 21.150938 35.540937 20.710938 35.210938 C 20.485938 35.045437 20.216641 34.983828 19.962891 35.017578 z M 22.880859 37.482422 C 22.625859 37.470172 22.365156 37.555234 22.160156 37.740234 C 21.750156 38.109234 21.710078 38.739438 22.080078 39.148438 C 22.280078 39.369437 22.550313 39.478516 22.820312 39.478516 C 23.060312 39.478516 23.3 39.398516 23.5 39.228516 C 23.91 38.858516 23.940313 38.228594 23.570312 37.808594 C 23.385312 37.603594 23.135859 37.494672 22.880859 37.482422 z M 24.861328 40.498047 C 24.732109 40.508187 24.602969 40.544375 24.480469 40.609375 C 23.990469 40.859375 23.800781 41.459219 24.050781 41.949219 C 24.230781 42.299219 24.579453 42.5 24.939453 42.5 C 25.089453 42.5 25.250391 42.460625 25.400391 42.390625 C 25.890391 42.130625 26.080078 41.528062 25.830078 41.039062 C 25.635078 40.670812 25.248984 40.467625 24.861328 40.498047 z M 25.902344 44.003906 C 25.804844 44.014031 25.709141 44.040078 25.619141 44.080078 C 25.489141 44.130078 25.389063 44.199062 25.289062 44.289062 C 25.199062 44.389062 25.130078 44.499141 25.080078 44.619141 C 25.030078 44.739141 25 44.87 25 45 C 25 45.27 25.099063 45.520938 25.289062 45.710938 C 25.479063 45.899937 25.73 46 26 46 C 26.27 46 26.520937 45.899938 26.710938 45.710938 C 26.900938 45.520937 27 45.27 27 45 C 27 44.87 26.979922 44.740094 26.919922 44.621094 C 26.869922 44.501094 26.800937 44.391016 26.710938 44.291016 C 26.660937 44.251016 26.610547 44.201875 26.560547 44.171875 C 26.500547 44.131875 26.440859 44.100078 26.380859 44.080078 C 26.320859 44.049078 26.259219 44.029531 26.199219 44.019531 C 26.099219 43.999031 25.999844 43.993781 25.902344 44.003906 z"/></svg>

<svg xmlns="http://www.w3.org/2000/svg" xmlns:xlink="http://www.w3.org/1999/xlink" viewBox="0,0,256,256" width="100px" height="100px"><g fill="#9b74ce" fill-rule="nonzero" stroke="none" stroke-width="1" stroke-linecap="butt" stroke-linejoin="miter" stroke-miterlimit="10" stroke-dasharray="" stroke-dashoffset="0" font-family="none" font-weight="none" font-size="none" text-anchor="none" style="mix-blend-mode: normal"><g transform="scale(5.12,5.12)"><path d="M34.87695,3.00781c-0.215,0.02625 -0.42289,0.12125 -0.58789,0.28125c-2.06,2.07 -2.29906,5.38141 -0.53906,7.69141l0.00977,0.0293l-4.26953,5.99023c-9.73,-0.06 -12.99992,-0.05 -14.16992,0c-1.21,-0.88 -2.20984,-1.78937 -2.83984,-2.60937c-1.1,-1.4 -1.73125,-2.61094 -1.78125,-2.71094c-0.01,-0.01 -0.00953,-0.01906 -0.01953,-0.03906c-0.75,-1.46 -2.54953,-2.06031 -4.01953,-1.32031c-1.48,0.74 -2.08008,2.54906 -1.33008,4.03906c0.01,0.03 1.66055,2.99094 4.31055,5.71094l-9.41016,11.28906c-0.17,0.21 -0.2507,0.48 -0.2207,0.75c0.03,0.27 0.16086,0.51969 0.38086,0.67969l4.41016,3.40039c0.53,0.46 1.22945,0.7207 1.93945,0.7207c0.9,0 1.72883,-0.39031 2.29883,-1.07031c1.04,-1.25 0.90117,-3.10992 -0.29883,-4.16992l1.41016,-1.41016l2,-2h0.00976c0.04,-0.05 0.07914,-0.07961 0.11914,-0.09961c0.04,-0.03 0.09086,-0.06008 0.13086,-0.08008c0.08,-0.05 0.16977,-0.07984 0.25977,-0.08984c0.06,-0.01 0.12945,-0.01953 0.18945,-0.01953c0.06,0 0.13141,0.00953 0.19141,0.01953c0.07,0.01 0.12945,0.02883 0.18945,0.04883c3.96,1.24 5.42945,-2.52883 5.68945,-3.29883c0.18,-0.53 0.73953,-0.81063 1.26953,-0.64062c0.52,0.18 0.81086,0.74953 0.63086,1.26953c-0.88,2.65 -3.03008,4.91992 -6.08008,4.91992c-0.51,0 -1.03984,-0.05945 -1.58984,-0.18945l-0.19922,0.20117c1.58,1.37 4.35906,2.69922 8.03906,2.69922h10v12c0,0.55 0.45,1 1,1h6c0.81,0 1.56938,-0.32086 2.10938,-0.88086c0.63,-0.61 0.95086,-1.47867 0.88086,-2.38867c-0.13,-1.41 -1.30023,-2.54094 -2.74023,-2.71094l2.7207,-11.79883c0.02,-0.07 0.0293,-0.1407 0.0293,-0.2207v-5.75977l2.61914,-5.24023h3.38086c0.43,0 0.80922,-0.27969 0.94922,-0.67969l2,-6c0.1,-0.31 0.05133,-0.64039 -0.13867,-0.90039c-0.19,-0.27 -0.49055,-0.41992 -0.81055,-0.41992h-3.58984l-2.69922,-2.71094c-0.19,-0.18 -0.44094,-0.28906 -0.71094,-0.28906h-1.7207l-4.76953,-2.85937c-0.195,-0.115 -0.41781,-0.15906 -0.63281,-0.13281zM11.78906,31.92969l-0.78906,13.00977c-0.02,0.27 0.07953,0.54 0.26953,0.75c0.19,0.2 0.45047,0.31055 0.73047,0.31055h6.01953c1.64,-0.03 2.98047,-1.35953 2.98047,-3.01953c-0.03,-1.6 -1.2593,-2.89047 -2.7793,-2.98047l0.28906,-1.44922c-0.08,-0.05 -0.16024,-0.10992 -0.24023,-0.16992c-1.16,-0.87 -1.50008,-2.49148 -0.83008,-3.77148c-2.4,-0.54 -4.33039,-1.57969 -5.65039,-2.67969zM19.96289,35.01758c-0.25375,0.03375 -0.49211,0.16331 -0.66211,0.38281c-0.33,0.44 -0.24078,1.07039 0.19922,1.40039c0.18,0.139 0.38961,0.20898 0.59961,0.20898c0.3,0 0.60078,-0.13939 0.80078,-0.40039c0.33,-0.439 0.25055,-1.06844 -0.18945,-1.39844c-0.225,-0.1655 -0.4943,-0.22711 -0.74805,-0.19336zM22.88086,37.48242c-0.255,-0.01225 -0.5157,0.07281 -0.7207,0.25781c-0.41,0.369 -0.45008,0.9992 -0.08008,1.4082c0.2,0.221 0.47023,0.33008 0.74023,0.33008c0.24,0 0.47969,-0.08 0.67969,-0.25c0.41,-0.37 0.44031,-0.99992 0.07031,-1.41992c-0.185,-0.205 -0.43445,-0.31392 -0.68945,-0.32617zM24.86133,40.49805c-0.12922,0.01014 -0.25836,0.04633 -0.38086,0.11133c-0.49,0.25 -0.67969,0.84984 -0.42969,1.33984c0.18,0.35 0.52867,0.55078 0.88867,0.55078c0.15,0 0.31094,-0.03937 0.46094,-0.10937c0.49,-0.26 0.67969,-0.86256 0.42969,-1.35156c-0.195,-0.36825 -0.58109,-0.57144 -0.96875,-0.54102zM25.90234,44.00391c-0.0975,0.01013 -0.1932,0.03617 -0.2832,0.07617c-0.13,0.05 -0.23008,0.11898 -0.33008,0.20898c-0.09,0.1 -0.15898,0.21008 -0.20898,0.33008c-0.05,0.12 -0.08008,0.25086 -0.08008,0.38086c0,0.27 0.09906,0.52094 0.28906,0.71094c0.19,0.189 0.44094,0.28906 0.71094,0.28906c0.27,0 0.52094,-0.10006 0.71094,-0.28906c0.19,-0.19 0.28906,-0.44094 0.28906,-0.71094c0,-0.13 -0.02008,-0.25991 -0.08008,-0.37891c-0.05,-0.12 -0.11898,-0.23008 -0.20898,-0.33008c-0.05,-0.04 -0.10039,-0.08914 -0.15039,-0.11914c-0.06,-0.04 -0.11969,-0.0718 -0.17969,-0.0918c-0.06,-0.031 -0.12164,-0.05055 -0.18164,-0.06055c-0.1,-0.0205 -0.19937,-0.02575 -0.29687,-0.01562z"></path></g></g></svg>
